svg/watch_vibrate.svg

<svg xmlns="http://www.w3.org/2000/svg" viewBox="0 0 24 24"><path d="M3 17V7h2v10zm16 0V7h2v10zm3-8h2v6h-2zM0 15V9h2v6zm17.96-3.03c0 1.9-.89 3.6-2.28 4.7l-.71 4.28H9l-.73-4.28A5.98 5.98 0 0 1 6 11.97c0-1.9.88-3.6 2.27-4.69L9 3h5.97l.71 4.28a5.95 5.95 0 0 1 2.28 4.69m-10.46 0c0 2.48 2 4.49 4.47 4.49a4.5 4.5 0 0 0 4.49-4.49c0-2.47-2.01-4.47-4.49-4.47a4.47 4.47 0 0 0-4.47 4.47"/></svg>

<?xml version="1.0" encoding="UTF-8"?><!DOCTYPE svg PUBLIC "-//W3C//DTD SVG 1.1//EN" "http://www.w3.org/Graphics/SVG/1.1/DTD/svg11.dtd"><svg xmlns="http://www.w3.org/2000/svg" xmlns:xlink="http://www.w3.org/1999/xlink" version="1.1" id="mdi-watch-vibrate" width="24" height="24" viewBox="0 0 24 24"><path d="M3,17V7H5V17H3M19,17V7H21V17H19M22,9H24V15H22V9M0,15V9H2V15H0M17.96,11.97C17.96,13.87 17.07,15.57 15.68,16.67L14.97,20.95H9L8.27,16.67C6.88,15.57 6,13.87 6,11.97C6,10.07 6.88,8.37 8.27,7.28L9,3H14.97L15.68,7.28C17.07,8.37 17.96,10.07 17.96,11.97M7.5,11.97C7.5,14.45 9.5,16.46 11.97,16.46A4.5,4.5 0 0,0 16.46,11.97C16.46,9.5 14.45,7.5 11.97,7.5A4.47,4.47 0 0,0 7.5,11.97Z" /></svg>
